!!!OTL: 510a. Liebesscherz.
!!!ARE: Europa, Mitteleuropa, Deutschland, Schwaben
!!!SCT: E0510
!!!TXL: @@GSW
!!!YEM: Copyright 1995, estate of Helmut Schaffrath.
**kern	**text
*ICvox	*
*M3/8	*
*k[f#]	*
*G:	*
=1	=1
!LO:TX:a:t=Bewegung eines Länders.	!
!LO:TX:a:t=Schwäbiſch 1827, bei Silcher 3, Nr. 3.	!
{8d	Wo
8g	e
8g	kleins
=2	=2
8.f#	Hütt-
16e	-le
8d}	ſteht,
=3	=3
{8cc	iſt
8a	e
8f#	kleins
=4	=4
8a	Güt-
8g	-le,
8r}	.
=5	=5
{8d	Wo
8g	e
8g	kleins
=6	=6
8.f#	Hütt-
16e	-le
8d}	ſteht,
=7	=7
{8cc	iſt
8a	e
8f#	kleins
=8	=8
4g	Gut;
8r}	.
=9	=9
{8.a	und
16b/	wo
8a	viel
=10	=10
8.a	Bu-
16b/	-be
8a}	ſind,
=11	=11
{8.a	Mäd-
16b/	-le
8a	ſind,
=12	=12
8.a	Bu-
16b/	-be
8a}	ſind,
=13	=13
{8g	do
8f#	iſts
8e	halt
=14	=14
8d	lieb-
4cc^}	-le,
=15	=15
{16bL	do
16aJ	.
16gL	iſts
16f#J	.
16eL	halt
16f#J	.
=16	=16
(8aqq	.
4g)	gut.
8r}	.
==	==
!!!AGN: Liebes - Lied, Scherz
!!!ONB: ESAC (Essen Associative Code) Database: ERK1
!!!AMT: simple triple
!!!AIN: vox
!!!EED: Helmut Schaffrath
!!!EEV: 1.0
!!!GTL: Liebeslieder [Neuere (aus dem 18. bis 19. Jahrh.) - Liebeslust]
!!!URL-scan: https://rosdok.uni-rostock.de/mcrviewer/recordIdentifier/rosdok_ppn745177662/iview2/phys_0333.iview2?x=-128.77276441889285&y=1423.4150311660487&scale=0.5870222003877487&rotation=0&layout=singlePageLayout
!!!ENC: Anna Maria Matuszewska
!!!EEV: 2024/10/12
*-	*-
